img/pay/pb.svg

<?xml version="1.0" encoding="UTF-8"?>
<svg width="120px" height="22px" viewBox="0 0 120 22" version="1.1" xmlns="http://www.w3.org/2000/svg" xmlns:xlink="http://www.w3.org/1999/xlink">
    <!-- Generator: Sketch 50.2 (55047) - http://www.bohemiancoding.com/sketch -->
    <title>PrivatBank_logo</title>
    <desc>Created with Sketch.</desc>
    <defs></defs>
    <g id="Page-1" stroke="none" stroke-width="1" fill="none" fill-rule="evenodd">
        <g id="Desktop-HD-Copy" transform="translate(-1093.000000, -4156.000000)" fill-rule="nonzero">
            <g id="Финиш" transform="translate(0.000000, 3772.000000)">
                <g id="Group-8" transform="translate(708.000000, 370.000000)">
                    <g id="PrivatBank_logo" transform="translate(385.000000, 14.000000)">
                        <path d="M31.9097333,16.3665727 L31.9097333,10.7331437 L33.1579032,10.7331437 L34.4060731,10.7331437 L34.4060731,11.2371872 C34.4060731,11.5144111 34.4196565,11.7412306 34.4362517,11.7412306 C34.4528524,11.7412306 34.6176922,11.6065247 34.8025625,11.441884 C35.198406,11.0893613 35.8647768,10.7164094 36.3597304,10.5703738 C36.8870497,10.4147898 38.1357623,10.4338082 38.7172521,10.6062795 C39.4583992,10.8261059 39.9095692,11.1089199 40.4298498,11.6798198 C40.967708,12.2700031 41.2312401,12.7905039 41.4136737,13.6229988 C41.5465495,14.2293334 41.5701508,15.2808512 41.4646098,15.8921788 C41.1712519,17.591351 40.0417341,18.8214721 38.4429749,19.1829424 C37.1600787,19.4729987 35.6546392,19.137792 34.8861627,18.3909656 C34.7472685,18.2559886 34.6190598,18.1455498 34.6012544,18.1455498 C34.5834489,18.1455498 34.5688779,19.0128011 34.5688779,20.0727749 L34.5688779,22 L33.2393056,22 L31.9097333,22 L31.9097333,16.3665727 Z M37.5111564,17.5092571 C38.3086067,17.1161032 38.7459329,16.1758367 38.7459329,14.8544422 C38.7459329,13.56618 38.3748357,12.7284164 37.619465,12.3113963 C36.8159094,11.8677746 35.8005557,12.0080594 35.1810293,12.6482984 C34.7016778,13.1436765 34.4622299,13.8785962 34.4622299,14.8544422 C34.4622299,16.3132153 35.0389767,17.3492915 36.0006211,17.6180297 C36.0936695,17.6440324 36.4139987,17.6585904 36.7124741,17.6503834 C37.1282612,17.6389505 37.31502,17.6059504 37.5111564,17.5092571 Z M44.8255788,19.2620239 C43.7248828,19.1666411 42.9808813,18.6667248 42.5935253,17.7622276 C42.2932862,17.0611447 42.276946,16.8497963 42.2759149,13.6536327 L42.2749923,10.7331437 L43.6012326,10.7331437 L44.9274728,10.7331437 L44.9452294,13.5646821 C44.9626929,16.349708 44.9650156,16.4017431 45.0864463,16.7322711 C45.2452244,17.1644439 45.379267,17.3466823 45.6583198,17.5097374 C45.8538266,17.6239715 45.9668728,17.6415063 46.5079165,17.6415063 C47.0817328,17.6415063 47.1544577,17.6285612 47.4108209,17.4807994 C47.7561353,17.2817793 48.0428291,16.9233214 48.2033654,16.4898736 C48.3234448,16.1656669 48.3262288,16.1045591 48.3420154,13.4460836 L48.3581331,10.7331437 L49.7122889,10.7331437 L51.0664502,10.7331437 L51.0664502,14.8544422 L51.0664502,18.975739 L49.7097437,18.975739 L48.3530373,18.975739 L48.3530373,18.5013452 C48.3530373,18.2404285 48.3409517,18.0269513 48.3261745,18.0269513 C48.3114027,18.0269513 48.1465628,18.1618867 47.9598637,18.3268038 C47.1205726,19.0681984 46.1006983,19.3725161 44.8256005,19.2620239 L44.8255788,19.2620239 Z M64.0094081,19.265226 C63.1047237,19.1932842 62.3275751,18.8511929 61.9219144,18.346331 C61.2553374,17.5167703 61.2922833,16.2036837 62.0034471,15.4484367 C62.6180568,14.795736 63.599444,14.4898053 65.9087972,14.2310116 C67.3929092,14.064695 67.6155502,13.9389925 67.6174496,13.266299 C67.6184807,12.8961378 67.5171835,12.6429567 67.2750711,12.4106733 C66.8152725,11.9695404 65.6628371,11.9240603 64.995864,12.3207253 C64.7080197,12.4919163 64.503602,12.8085178 64.4415571,13.1792549 L64.40434,13.401627 L63.1317493,13.401627 L61.8591641,13.401627 L61.8967014,13.1199556 C61.9478764,12.7359706 62.1056722,12.2879073 62.3062585,11.9570022 C62.9375449,10.9155789 64.5026957,10.3636602 66.5600163,10.4569984 C67.8302951,10.5146295 68.6610824,10.746955 69.315308,11.2275036 C69.7369235,11.537195 70.0189774,11.9435116 70.1710262,12.4602113 C70.2866393,12.8531073 70.288772,12.9204772 70.2697239,15.577798 C70.2511478,18.1696905 70.255066,18.3044065 70.355484,18.5255689 C70.4194229,18.6663868 70.520568,18.7820084 70.6132582,18.8202387 C70.6971624,18.8548457 70.7658063,18.9039929 70.7658063,18.929456 C70.7658063,18.9549191 70.1328593,18.9757568 69.3592544,18.9757568 L67.952708,18.9757568 L67.8353203,18.5903118 C67.7707574,18.378317 67.693284,18.2048668 67.6631489,18.2048668 C67.6330191,18.2048668 67.5132328,18.2938453 67.3969631,18.4025941 C66.9439533,18.826305 66.0348895,19.1893586 65.2847122,19.2461732 C65.0608556,19.2631268 64.8044381,19.2840595 64.7148955,19.2926875 C64.6253529,19.3013215 64.3078835,19.2889517 64.0094081,19.265226 Z M66.4865967,17.5005935 C66.8941297,17.3278845 67.2517358,16.9738028 67.4373821,16.5591766 C67.5634201,16.2776891 67.5917264,16.1268971 67.6095481,15.6421496 C67.6213786,15.3201903 67.6090054,15.0620073 67.5819744,15.0620073 C67.5550845,15.0620073 67.3925782,15.1159697 67.2208463,15.1819223 C67.0491144,15.2478749 66.5249156,15.3666334 66.0559564,15.4458276 C65.1232533,15.6033323 64.8118946,15.7012887 64.5498874,15.9196581 C64.123632,16.2749258 64.0825997,16.9612492 64.4650064,17.3394063 C64.5276863,17.4013918 64.7072382,17.5020167 64.8640084,17.5630178 C65.255581,17.7153931 66.0520545,17.6847473 66.4865967,17.5005935 Z M93.8298161,19.2646093 C92.6068809,19.1733478 91.7771952,18.6932316 91.4046816,17.8612455 C91.1967148,17.3967843 91.1645554,16.6596651 91.3311861,16.1767322 C91.6472553,15.2607072 92.5392247,14.7193823 94.2368281,14.4133449 C94.4159133,14.3810564 95.0386416,14.3002909 95.6206687,14.2338639 C96.8417316,14.0945048 97.0203393,14.0500956 97.2148856,13.8375197 C97.3422261,13.698374 97.3572529,13.6367799 97.3572529,13.254062 C97.3572529,12.7107672 97.2372116,12.4909521 96.8145704,12.2603023 C96.231344,11.942019 95.1660309,12.0019101 94.6714354,12.3807877 C94.4139922,12.5779974 94.2118267,12.9412793 94.2105894,13.2089045 L94.2097211,13.401627 L92.9269443,13.401627 L91.6441675,13.401627 L91.6792193,13.0606564 C91.7002374,12.8562081 91.7901979,12.5500503 91.9039062,12.2960129 C92.4438645,11.0896536 93.8389115,10.4374433 95.8806082,10.4368325 C98.1417332,10.4361565 99.4941796,11.0991712 99.9410624,12.4274052 C100.030817,12.6941812 100.039581,12.968946 100.04148,15.5761673 C100.043543,18.3817505 100.045605,18.4356416 100.157327,18.6004283 C100.219898,18.6927097 100.32412,18.7975863 100.388927,18.833498 C100.453735,18.8694096 100.522606,18.9161077 100.54198,18.9372716 C100.561349,18.9584355 99.929601,18.9757568 99.1380984,18.9757568 L97.6989964,18.9757568 L97.6035169,18.5903118 C97.5510015,18.378317 97.4852772,18.2048668 97.4574593,18.2048668 C97.4296468,18.2048668 97.2797307,18.3084981 97.1243119,18.4351613 C96.3168762,19.093199 95.223094,19.3685846 93.8298433,19.2646093 L93.8298161,19.2646093 Z M96.2990219,17.4729482 C96.6622828,17.2904429 97.0446515,16.9183699 97.1922394,16.6037874 C97.2457968,16.4896364 97.3170402,16.2548292 97.3505671,16.0819957 C97.4220492,15.7134865 97.431747,15.0620073 97.3657514,15.0620073 C97.3405763,15.0620073 97.1758884,15.1161772 96.9997771,15.1823848 C96.8236657,15.2485924 96.2818297,15.3677898 95.7957001,15.4472626 C94.8422068,15.6031544 94.5053691,15.7271609 94.2222136,16.0265746 C93.8465145,16.4238321 93.886152,17.1012013 94.301505,17.3817045 C94.6330895,17.6056362 94.9107259,17.6708119 95.4578639,17.6531645 C95.8854544,17.6393715 96.0289668,17.6086248 96.2990219,17.4729482 Z M9.00839849,17.9824947 C9.00796434,14.5225741 8.50155032,12.6579209 7.16753396,11.2043028 C6.3133456,10.2735319 5.26590092,9.71641025 3.75843073,9.39104603 C3.46157141,9.3269732 2.84561854,9.29104735 1.6687484,9.26916357 L0,9.23813346 L0,4.61906703 L0,0 L8.71005494,0 L17.4201104,0 L17.4201104,9.51752714 L17.4201104,19.0350561 L13.2143204,19.0350561 L9.00853036,19.0350561 L9.00842182,17.9824947 L9.00839849,17.9824947 Z M13.8793817,9.50270233 L13.8655395,3.88409986 L8.723622,3.86897441 L3.58170451,3.85384836 L3.58170451,4.65200242 L3.58170451,5.45015529 L3.78521048,5.48640076 C5.99494993,5.87996325 7.4000398,6.480419 8.79160439,7.62584895 C10.6145343,9.12634551 11.8471336,11.4465135 12.305612,14.2403927 L12.4501701,15.1213066 L13.171697,15.1213066 L13.8932244,15.1213066 L13.8793817,9.50270233 Z M19.8079116,13.2830285 L19.8079116,7.59030202 L25.1262009,7.59030202 L30.4444903,7.59030202 L30.4444903,13.2830285 L30.4444903,18.9757568 L28.9792473,18.9757568 L27.5140043,18.9757568 L27.5140043,14.3800662 L27.5140043,9.7843737 L25.1262009,9.7843737 L22.7383976,9.7843737 L22.7383976,14.3800662 L22.7383976,18.9757568 L21.2731546,18.9757568 L19.8079116,18.9757568 L19.8079116,13.2830285 Z M52.2603302,14.8536002 L52.2603302,10.7248827 L55.5028586,10.7472836 C58.6110731,10.768757 58.7626281,10.7749182 59.1615758,10.8960179 C59.6898718,11.0563826 59.9399834,11.1972604 60.2044217,11.4834166 C60.5126546,11.8169653 60.6352249,12.1565933 60.6398865,12.6900362 C60.6431426,13.0610602 60.6188522,13.1904197 60.4934219,13.4704461 C60.2460889,14.0226163 59.7626781,14.4071303 59.0845637,14.5910706 C58.9427878,14.6295262 58.8267894,14.6796281 58.8267894,14.7024049 C58.8267894,14.7251877 59.006374,14.7900848 59.2258619,14.8466266 C59.9951959,15.0448106 60.5588857,15.4249898 60.7808917,15.8954166 C60.9201495,16.1905133 61.0118737,16.8034124 60.9703694,17.1615679 C60.8713461,18.0161825 60.4061531,18.5161285 59.432917,18.8139055 C59.0313482,18.9367676 58.8980599,18.9419622 55.6385293,18.96178 L52.2603302,18.9823213 L52.2603302,14.8536002 Z M57.6493473,17.2619615 C57.9988241,17.1391943 58.1858759,16.909641 58.2126844,16.5706155 C58.2595505,15.9778722 57.9273528,15.641859 57.1912255,15.537433 C56.9715042,15.5062654 56.3826828,15.4799365 55.8827364,15.4789284 L54.9737431,15.4770901 L54.9737431,16.4307345 L54.9737431,17.3843729 L56.208346,17.3594198 C56.9692358,17.3440376 57.5221425,17.3066435 57.6493473,17.2619556 L57.6493473,17.2619615 Z M57.479797,13.8349639 C58.1089126,13.5216813 58.0127547,12.6711381 57.3237378,12.4545904 C57.2102194,12.418913 56.6350302,12.3731008 56.0455412,12.3527854 L54.9737431,12.3158491 L54.9737431,13.1612261 L54.9737431,14.0066055 L56.0998095,13.9840066 C57.1072291,13.9637855 57.2526301,13.9480831 57.479797,13.8349639 Z M73.642024,15.6549997 L73.642024,12.3342408 L72.1496469,12.3342408 L70.6572698,12.3342408 L70.6572698,11.5337011 L70.6572698,10.7331615 L74.9987305,10.7331615 L79.3401911,10.7331615 L79.3401911,11.5337011 L79.3401911,12.3342408 L77.847814,12.3342408 L76.3554369,12.3342408 L76.3554369,15.6549997 L76.3554369,18.9757568 L74.9987305,18.9757568 L73.642024,18.9757568 L73.642024,15.6549997 Z M79.937142,13.2830285 L79.937142,7.59030202 L84.7941511,7.59030202 L89.6511602,7.59030202 L89.6511602,8.68733786 L89.6511602,9.7843737 L86.23226,9.7843737 L82.8133597,9.7843737 L82.8133597,10.8164282 L82.8133597,11.8484828 L84.970523,11.8771463 C87.242876,11.9073403 87.4780258,11.9317858 88.2929017,12.2225204 C89.5442084,12.6689654 90.3680059,13.5987703 90.5687551,14.7912233 C90.8402646,16.4040024 90.2827234,17.6646804 88.9985139,18.3417887 C87.8757959,18.9337433 87.5077323,18.97498 83.3424752,18.975407 L79.937142,18.976 L79.937142,13.2832717 L79.937142,13.2830285 Z M86.4518185,16.7103304 C87.161821,16.5089858 87.481385,16.1330108 87.479236,15.5015392 C87.4770653,14.8621393 87.2239147,14.4904873 86.601778,14.2133286 C86.3306103,14.0925301 86.21071,14.0838428 84.563511,14.0657268 L82.8133597,14.0464783 L82.8133597,15.4500022 L82.8133597,16.8535321 L84.4821086,16.8246059 C85.6837435,16.8037741 86.2351036,16.7717881 86.4518185,16.7103304 Z M101.264568,14.85446 L101.264568,10.7331615 L102.621274,10.7331615 L103.97798,10.7331615 L103.97798,12.3045912 L103.97798,13.8760227 L105.633162,13.8760227 L107.288344,13.8760227 L107.288344,12.3045912 L107.288344,10.7331615 L108.617917,10.7331615 L109.947489,10.7331615 L109.947489,14.85446 L109.947489,18.9757568 L108.617917,18.9757568 L107.288344,18.9757568 L107.288344,17.2264294 L107.288344,15.477102 L105.633162,15.477102 L103.97798,15.477102 L103.97798,17.2264294 L103.97798,18.9757568 L102.621274,18.9757568 L101.264568,18.9757568 L101.264568,14.85446 Z M111.195659,14.85446 L111.195659,10.7331615 L112.525231,10.7331615 L113.854804,10.7331615 L113.854804,12.39354 C113.854804,13.7199589 113.869054,14.0539204 113.925651,14.0539204 C113.964615,14.0539204 114.650539,13.3067482 115.449927,12.39354 L116.903355,10.7331615 L118.376809,10.7331615 L119.850268,10.7331615 L119.552379,11.0498674 C119.388543,11.2240559 118.551944,12.0943783 117.693273,12.9839173 L116.132046,14.6012582 L116.852115,15.4239402 C117.248149,15.8764112 118.118438,16.8606717 118.78609,17.6111866 L120,18.9757568 L118.450061,18.9757568 L116.900121,18.9757568 L115.429468,17.1671302 C114.62061,16.1723855 113.935414,15.3585035 113.906809,15.3585035 C113.874785,15.3585035 113.854804,16.053372 113.854804,17.1671302 L113.854804,18.9757568 L112.525231,18.9757568 L111.195659,18.9757568 L111.195659,14.85446 Z" id="Shape" fill="#75B028"></path>
                        <polygon id="Shape" fill="#000000" points="0 15.3488381 0 11.7674419 3.37748317 11.7674419 6.75496689 11.7674419 6.75496689 15.3488381 6.75496689 18.9302326 3.37748317 18.9302326 0 18.9302326"></polygon>
                    </g>
                </g>
            </g>
        </g>
    </g>
</svg>

<svg width="120" height="22" xmlns="http://www.w3.org/2000/svg"><g fill="none"><path d="M31.91 16.367v-5.634h2.496v.504c0 .277.014.504.03.504.017 0 .182-.134.367-.3.395-.352 1.062-.725 1.557-.87.527-.156 1.776-.137 2.357.035.741.22 1.193.503 1.713 1.074.538.59.801 1.11.984 1.943.133.606.156 1.658.05 2.27-.293 1.698-1.422 2.928-3.021 3.29-1.283.29-2.788-.045-3.557-.792-.139-.135-.267-.245-.285-.245-.018 0-.032.867-.032 1.927V22h-2.66v-5.633zm5.601 1.142c.798-.393 1.235-1.333 1.235-2.655 0-1.288-.371-2.126-1.127-2.543-.803-.443-1.818-.303-2.438.337-.48.496-.719 1.23-.719 2.206 0 1.46.577 2.495 1.539 2.764.093.026.413.04.711.032.416-.011.603-.044.8-.14zm7.315 1.753c-1.101-.095-1.845-.595-2.232-1.5-.3-.7-.317-.912-.318-4.108l-.001-2.92h2.652l.018 2.83c.018 2.786.02 2.838.141 3.168.16.432.293.615.572.778.196.114.309.132.85.132.574 0 .646-.013.903-.161.345-.2.632-.558.792-.991.12-.324.123-.385.139-3.044l.016-2.713h2.708v8.243h-2.713V18.5c0-.26-.012-.474-.027-.474s-.18.135-.366.3c-.84.741-1.86 1.046-3.134.935zm19.183.003c-.904-.072-1.681-.414-2.087-.919-.667-.83-.63-2.142.081-2.898.615-.652 1.596-.958 3.906-1.217 1.484-.166 1.707-.292 1.708-.965.001-.37-.1-.623-.342-.855-.46-.441-1.612-.487-2.28-.09-.287.17-.491.488-.553.858l-.038.223H61.86l.038-.282c.05-.384.209-.832.41-1.163.63-1.041 2.196-1.593 4.253-1.5 1.27.058 2.101.29 2.755.77.422.31.704.717.856 1.233.116.393.118.46.099 3.118-.019 2.592-.015 2.726.085 2.948.064.14.166.256.258.294.084.035.153.084.153.11 0 .025-.633.046-1.407.046h-1.406l-.118-.386c-.064-.212-.142-.385-.172-.385s-.15.089-.266.198c-.453.423-1.362.786-2.112.843-.224.017-.48.038-.57.047a6.527 6.527 0 0 1-.706-.028zm2.478-1.764a1.88 1.88 0 0 0 .95-.942c.126-.281.155-.432.173-.917.011-.322-.001-.58-.028-.58s-.19.054-.361.12c-.172.066-.696.185-1.165.264-.933.157-1.244.255-1.506.474-.426.355-.467 1.041-.085 1.42a1.5 1.5 0 0 0 .399.223c.392.152 1.188.122 1.623-.062zm27.343 1.764c-1.223-.092-2.053-.572-2.425-1.404-.208-.464-.24-1.201-.074-1.684.316-.916 1.208-1.458 2.906-1.764a35.83 35.83 0 0 1 1.384-.18c1.22-.138 1.4-.183 1.594-.395.127-.14.142-.201.142-.584 0-.543-.12-.763-.542-.994-.584-.318-1.649-.258-2.144.12-.257.198-.46.561-.46.829l-.001.193h-2.566l.035-.341c.021-.205.111-.51.225-.765.54-1.206 1.935-1.859 3.977-1.86 2.26 0 3.613.663 4.06 1.991.09.267.099.542.1 3.15.003 2.805.005 2.859.116 3.023a.872.872 0 0 0 .232.233.83.83 0 0 1 .153.104c.02.021-.612.039-1.404.039H97.7l-.095-.386c-.053-.212-.119-.385-.147-.385-.027 0-.177.103-.333.23-.807.658-1.9.934-3.294.83zm2.469-1.792c.363-.183.746-.555.893-.87.054-.113.125-.348.159-.521.071-.369.08-1.02.015-1.02-.025 0-.19.054-.366.12-.176.067-.718.186-1.204.265-.954.156-1.29.28-1.574.58-.375.397-.336 1.074.08 1.355.331.224.609.289 1.156.271.427-.014.571-.044.841-.18zm-87.29.51c-.001-3.46-.507-5.325-1.841-6.779-.855-.93-1.902-1.488-3.41-1.813-.296-.064-.912-.1-2.09-.122L0 9.24V0h17.42v19.035H9.01v-1.053zm4.87-8.48l-.013-5.619-5.142-.015-5.142-.015V5.45l.203.036c2.21.394 3.615.994 5.007 2.14 1.823 1.5 3.055 3.82 3.514 6.614l.144.881h1.443l-.014-5.618zm5.929 3.78V7.59h10.636v11.386h-2.93V9.784h-4.776v9.192h-2.93v-5.693zm32.452 1.57v-4.128l3.243.022c3.108.022 3.26.028 3.659.149.528.16.778.301 1.042.587.309.334.431.674.436 1.207.003.371-.021.5-.147.78-.247.553-.73.937-1.408 1.121-.142.039-.258.089-.258.111 0 .023.18.088.399.145.77.198 1.333.578 1.555 1.048.14.296.23.908.19 1.267-.1.854-.565 1.354-1.538 1.652-.402.123-.535.128-3.794.148l-3.379.02v-4.128zm5.39 2.409c.349-.123.536-.352.563-.691.047-.593-.286-.93-1.022-1.034-.22-.03-.808-.057-1.308-.058l-.91-.002v1.907l1.235-.025c.761-.015 1.314-.052 1.441-.097zm-.17-3.427c.629-.313.533-1.164-.156-1.38-.114-.036-.689-.082-1.278-.102l-1.072-.037v1.691l1.126-.023c1.007-.02 1.153-.036 1.38-.149zm16.162 1.82v-3.32h-2.985v-1.601h8.683v1.6h-2.985v6.641h-2.713v-3.32zm6.295-2.372V7.59h9.714v2.194h-6.838v2.064l2.158.03c2.272.03 2.507.054 3.322.345 1.251.446 2.075 1.376 2.276 2.568.271 1.613-.286 2.874-1.57 3.55-1.123.593-1.491.634-5.657.634l-3.405.001v-5.693zm6.515 3.427c.71-.201 1.03-.577 1.027-1.208-.002-.64-.255-1.012-.877-1.289-.271-.12-.391-.13-2.038-.147l-1.75-.02v2.808l1.668-.03c1.202-.02 1.753-.052 1.97-.114zm14.813-1.856v-4.12h2.713v3.141h3.31v-3.143h2.66v8.243h-2.66v-3.499h-3.31v3.499h-2.713v-4.122zm9.93 0v-4.12h2.66v1.66c0 1.326.014 1.66.07 1.66.04 0 .726-.747 1.525-1.66l1.453-1.66h2.947l-.298.316c-.163.174-1 1.044-1.859 1.934l-1.561 1.617.72.823c.396.452 1.266 1.437 1.934 2.187L120 18.976h-3.1l-1.47-1.809c-.81-.995-1.495-1.808-1.523-1.808-.032 0-.052.694-.052 1.808v1.809h-2.66v-4.122z" fill="#75B028"/><path fill="#000" d="M0 15.349v-3.582h6.755v7.163H0z"/></g></svg>
